X:1
T:Title
%%score { 1 | 2 }
L:1/8
M:4/4
K:G
V:1 treble nm="Grand Piano"
V:2 treble 
V:1
 z4 z[Q:1/4=100] DDG | B3 B BG c>B | B2 A2- AAAB | [Fc]3 [Fc] [Fc][FA] [Gd]>c | B4- BDDG | %5
 B3 B Bd [Gd]>[=Fd] | [Ed]2 E2- E[Ec][DEB][CEA] | [B,DG]3 [_B,^CG] [A,=CG][A,CF] [DFB]>[CFA] | %8
[M:5/8] G-G- G3 |[M:3/8] dBc |[M:4/4] d3 d d[A^d] [^Ge]>[GB] | [Bd]2 [Ac]2- [Ac][Ac][FA][FB] | %12
 [Fc]3 [Fc] [Fc][FA] [Gd]>c | B4- BDDG | B3 B Bd [Gd]>[=Fd] | [Ed]2 E2- E[Ec][DEB][CEA] | %16
 [B,DG]3 [_B,^CG] [A,=CG][A,CF] [DFB]>[CFA] |[M:5/8] [B,G]-[B,G]- [B,G]3 |] %18
V:2
 z4 z [G,B,][G,B,][G,B,D] | [G,DG]3 [G,DG] [G,DG][K:bass][G,B,D] [G,E]>[G,D] | %2
 [D,G,D]2 [D,F,D]2- [D,F,D][D,F,D][D,F,D][D,G,D] | [D,A,]3 [D,A,] [D,A,][D,C] [D,B,]>[F,A,D] | %4
 [G,D]4- [G,D][G,B,][G,B,][K:treble][G,B,D] | %5
 [G,DG]3 [G,DG] [G,DG][G,B,D][K:bass] [B,,G,]>[B,,G,] | [C,G,]2 [C,G,]2- [C,G,][A,,A,]B,,C, | %7
 D,3 D, D,D, D,>D, |[M:5/8] [G,B,]-[G,B,]- [G,B,]3 |[M:3/8][K:treble] [G,B,G][G,DG][G,A,G] | %10
[M:4/4] [G,B,G]3 [G,B,G] [G,B,G][K:bass][F,B,] [E,B,]>[E,E] | %11
 [A,E]2 [A,E]2- [A,E][D,D][D,C][D,B,] | [D,A,]3 [D,A,] [D,A,][D,C] [D,B,]>[F,A,D] | %13
 [G,D]4- [G,D][G,B,][G,B,][K:treble][G,B,D] | %14
 [G,DG]3 [G,DG] [G,DG][G,B,D][K:bass] [B,,G,]>[B,,G,] | [C,G,]2 [C,G,]2- [C,G,][A,,A,]B,,C, | %16
 D,3 D, D,D, D,>D, |[M:5/8] G,,-G,,- G,,3 |] %18

